svg/fluentui-system-icons/ic_fluent_rewind_24_regular.svg

<svg width="24" height="24" viewBox="0 0 24 24" fill="none" xmlns="http://www.w3.org/2000/svg">
<path d="M12.5007 5.50289C12.5007 4.22384 11.0026 3.5316 10.0285 4.36058L2.61872 10.6668C1.79765 11.3656 1.79767 12.6334 2.61875 13.3322L10.0285 19.6381C11.0026 20.4671 12.5007 19.7748 12.5007 18.4958V14.5081L18.5295 19.6387C19.5035 20.4677 21.0016 19.7754 21.0016 18.4964V5.50352C21.0016 4.22446 19.5035 3.53223 18.5295 4.36121L12.5007 9.49209V5.50289ZM12.5007 12.5384V11.4618L19.5016 5.50352V18.4964L12.5007 12.5384ZM3.5909 11.8091L11.0007 5.50289V18.4958L3.5909 12.1899C3.47361 12.0901 3.4736 11.9089 3.5909 11.8091Z" fill="#212121"/>
</svg>

<svg xmlns="http://www.w3.org/2000/svg" width="24" height="24"><path d="M12.5 5.503c0-1.28-1.497-1.971-2.472-1.142l-7.41 6.306a1.75 1.75 0 0 0 0 2.665l7.41 6.306c.975.83 2.473.137 2.473-1.142v-3.988l6.028 5.13c.974.83 2.473.137 2.473-1.142V5.504c0-1.28-1.498-1.972-2.473-1.143l-6.028 5.131v-3.99Zm0 7.035v-1.076l7.002-5.958v12.992L12.5 12.538Zm-8.91-.729L11 5.503v12.993L3.59 12.19a.25.25 0 0 1 0-.38Z"/></svg>
